austria/municipalities/31929.svg

<?xml version="1.0" encoding="UTF-8"?>
<!DOCTYPE svg PUBLIC "-//W3C//DTD SVG 1.1//EN" "http://www.w3.org/Graphics/SVG/1.1/DTD/svg11.dtd">
<svg xmlns="http://www.w3.org/2000/svg" version="1.1" width="120px" height="135px" style="shape-rendering:geometricPrecision; text-rendering:geometricPrecision; image-rendering:optimizeQuality; fill-rule:evenodd; clip-rule:evenodd" xmlns:xlink="http://www.w3.org/1999/xlink">
<g><path style="opacity:1" fill="#fcfcfc" d="M -0.5,-0.5 C 39.5,-0.5 79.5,-0.5 119.5,-0.5C 119.5,44.5 119.5,89.5 119.5,134.5C 79.5,134.5 39.5,134.5 -0.5,134.5C -0.5,89.5 -0.5,44.5 -0.5,-0.5 Z"/></g>
<g><path style="opacity:1" fill="#5a5a61" d="M 109.5,88.5 C 112.16,83.8537 113.827,78.8537 114.5,73.5C 108.833,73.5 103.167,73.5 97.5,73.5C 97.5,73.1667 97.5,72.8333 97.5,72.5C 97.8333,72.5 98.1667,72.5 98.5,72.5C 104.026,72.8214 109.36,72.4881 114.5,71.5C 114.5,65.5 114.5,59.5 114.5,53.5C 114.5,53.1667 114.5,52.8333 114.5,52.5C 115.833,36.1667 115.833,19.8333 114.5,3.5C 97.5,3.5 80.5,3.5 63.5,3.5C 61.5152,19.1317 60.8486,35.1317 61.5,51.5C 61.5,51.8333 61.5,52.1667 61.5,52.5C 60.596,51.791 60.2627,50.791 60.5,49.5C 60.5,44.5 60.5,39.5 60.5,34.5C 60.5,23.8333 60.5,13.1667 60.5,2.5C 41.5,2.5 22.5,2.5 3.5,2.5C 2.50246,25.6607 2.16912,48.994 2.5,72.5C 1.50242,49.0059 1.16909,25.3392 1.5,1.5C 39.8333,1.5 78.1667,1.5 116.5,1.5C 116.667,26.1689 116.5,50.8356 116,75.5C 115.049,80.5674 112.883,84.9008 109.5,88.5 Z"/></g>
<g><path style="opacity:1" fill="#0090fe" d="M 63.5,3.5 C 80.5,3.5 97.5,3.5 114.5,3.5C 114.5,19.5 114.5,35.5 114.5,51.5C 108.833,51.5 103.167,51.5 97.5,51.5C 97.5,48.8333 97.5,46.1667 97.5,43.5C 98.1174,43.6107 98.6174,43.944 99,44.5C 99.3939,38.3062 100.561,32.3062 102.5,26.5C 101.635,19.1296 97.6345,14.2963 90.5,12C 82.5,10 74.5,8 66.5,6C 64.8807,5.76445 63.8807,4.93112 63.5,3.5 Z"/></g>
<g><path style="opacity:1" fill="#fc4030" d="M 3.5,3.5 C 22.1667,3.5 40.8333,3.5 59.5,3.5C 59.5,13.8333 59.5,24.1667 59.5,34.5C 51.1667,29.1667 42.8333,23.8333 34.5,18.5C 34.2648,17.9033 33.7648,17.5699 33,17.5C 23.0603,24.4353 13.3936,31.7686 4,39.5C 3.50013,27.5046 3.33346,15.5046 3.5,3.5 Z"/></g>
<g><path style="opacity:1" fill="#029afd" d="M 63.5,3.5 C 63.8807,4.93112 64.8807,5.76445 66.5,6C 74.5,8 82.5,10 90.5,12C 97.6345,14.2963 101.635,19.1296 102.5,26.5C 100.561,32.3062 99.3939,38.3062 99,44.5C 98.6174,43.944 98.1174,43.6107 97.5,43.5C 97.5,39.8333 97.5,36.1667 97.5,32.5C 91.1667,32.5 84.8333,32.5 78.5,32.5C 77.5098,38.6446 77.1765,44.9779 77.5,51.5C 72.1667,51.5 66.8333,51.5 61.5,51.5C 60.8486,35.1317 61.5152,19.1317 63.5,3.5 Z"/></g>
<g><path style="opacity:1" fill="#90371a" d="M 3.5,3.5 C 3.5,3.16667 3.5,2.83333 3.5,2.5C 22.5,2.5 41.5,2.5 60.5,2.5C 60.5,13.1667 60.5,23.8333 60.5,34.5C 60.1667,34.5 59.8333,34.5 59.5,34.5C 59.5,24.1667 59.5,13.8333 59.5,3.5C 40.8333,3.5 22.1667,3.5 3.5,3.5 Z"/></g>
<g><path style="opacity:1" fill="#f9fafa" d="M 32.5,19.5 C 41.7007,24.5224 50.534,30.189 59,36.5C 59.499,40.8206 59.6657,45.1539 59.5,49.5C 59.5,50.8333 58.8333,51.5 57.5,51.5C 56.1979,49.1782 54.1979,47.8449 51.5,47.5C 51.0269,46.0937 50.0269,45.427 48.5,45.5C 43.8228,41.5035 38.8228,37.8368 33.5,34.5C 31.2145,35.1329 29.5478,36.4662 28.5,38.5C 22.9586,41.4365 17.9586,45.1031 13.5,49.5C 9.96829,50.8539 6.80162,52.8539 4,55.5C 3.33333,50.8333 3.33333,46.1667 4,41.5C 13.376,33.9514 22.876,26.618 32.5,19.5 Z"/></g>
<g><path style="opacity:1" fill="#66614a" d="M 32.5,19.5 C 32.8417,18.6618 33.5084,18.3284 34.5,18.5C 42.8333,23.8333 51.1667,29.1667 59.5,34.5C 59.8333,34.5 60.1667,34.5 60.5,34.5C 60.5,39.5 60.5,44.5 60.5,49.5C 60.1667,49.5 59.8333,49.5 59.5,49.5C 59.6657,45.1539 59.499,40.8206 59,36.5C 50.534,30.189 41.7007,24.5224 32.5,19.5 Z"/></g>
<g><path style="opacity:1" fill="#61463f" d="M 48.5,45.5 C 43.7226,42.9403 39.0559,40.107 34.5,37C 32.3111,36.678 30.3111,37.178 28.5,38.5C 29.5478,36.4662 31.2145,35.1329 33.5,34.5C 38.8228,37.8368 43.8228,41.5035 48.5,45.5 Z"/></g>
<g><path style="opacity:1" fill="#fb3f30" d="M 48.5,45.5 C 48.9731,46.9063 49.9731,47.573 51.5,47.5C 53.1475,49.3264 55.1475,50.6597 57.5,51.5C 57.7828,52.2891 58.2828,52.9558 59,53.5C 59.4994,59.1569 59.6661,64.8236 59.5,70.5C 59.1034,71.525 58.4368,71.6917 57.5,71C 50.1787,65.338 42.512,60.1713 34.5,55.5C 28.0793,59.365 22.0793,63.6983 16.5,68.5C 12.5344,70.7783 8.53437,73.1116 4.5,75.5C 3.33639,69.5276 3.16973,63.5276 4,57.5C 7.35751,54.9688 10.5242,52.3021 13.5,49.5C 19.0414,46.5635 24.0414,42.8969 28.5,38.5C 30.3111,37.178 32.3111,36.678 34.5,37C 39.0559,40.107 43.7226,42.9403 48.5,45.5 Z"/></g>
<g><path style="opacity:1" fill="#534a4b" d="M 28.5,38.5 C 24.0414,42.8969 19.0414,46.5635 13.5,49.5C 17.9586,45.1031 22.9586,41.4365 28.5,38.5 Z"/></g>
<g><path style="opacity:1" fill="#1f68a7" d="M 114.5,3.5 C 115.833,19.8333 115.833,36.1667 114.5,52.5C 108.642,52.8222 102.975,52.4889 97.5,51.5C 103.167,51.5 108.833,51.5 114.5,51.5C 114.5,35.5 114.5,19.5 114.5,3.5 Z"/></g>
<g><path style="opacity:1" fill="#623827" d="M 48.5,45.5 C 50.0269,45.427 51.0269,46.0937 51.5,47.5C 49.9731,47.573 48.9731,46.9063 48.5,45.5 Z"/></g>
<g><path style="opacity:1" fill="#6b453c" d="M 51.5,47.5 C 54.1979,47.8449 56.1979,49.1782 57.5,51.5C 55.1475,50.6597 53.1475,49.3264 51.5,47.5 Z"/></g>
<g><path style="opacity:1" fill="#2372c0" d="M 78.5,32.5 C 78.5,39.1667 78.5,45.8333 78.5,52.5C 72.8333,52.5 67.1667,52.5 61.5,52.5C 61.5,52.1667 61.5,51.8333 61.5,51.5C 66.8333,51.5 72.1667,51.5 77.5,51.5C 77.1765,44.9779 77.5098,38.6446 78.5,32.5 Z"/></g>
<g><path style="opacity:1" fill="#5e412a" d="M 78.5,32.5 C 84.8333,32.5 91.1667,32.5 97.5,32.5C 97.5,36.1667 97.5,39.8333 97.5,43.5C 97.5,46.1667 97.5,48.8333 97.5,51.5C 102.975,52.4889 108.642,52.8222 114.5,52.5C 114.5,52.8333 114.5,53.1667 114.5,53.5C 109.5,53.5 104.5,53.5 99.5,53.5C 98.5098,59.6446 98.1765,65.9779 98.5,72.5C 98.1667,72.5 97.8333,72.5 97.5,72.5C 97.5,66.1667 97.5,59.8333 97.5,53.5C 90.7453,52.8771 84.412,53.5437 78.5,55.5C 78.1667,55.5 77.8333,55.5 77.5,55.5C 75.2568,54.1883 72.5902,53.5217 69.5,53.5C 66.6445,53.5025 63.9779,53.8359 61.5,54.5C 60.8333,59.8333 60.1667,65.1667 59.5,70.5C 59.6661,64.8236 59.4994,59.1569 59,53.5C 58.2828,52.9558 57.7828,52.2891 57.5,51.5C 58.8333,51.5 59.5,50.8333 59.5,49.5C 59.8333,49.5 60.1667,49.5 60.5,49.5C 60.2627,50.791 60.596,51.791 61.5,52.5C 67.1667,52.5 72.8333,52.5 78.5,52.5C 78.5,45.8333 78.5,39.1667 78.5,32.5 Z"/></g>
<g><path style="opacity:1" fill="#ddc0ac" d="M 95.5,34.5 C 90.5,34.5 85.5,34.5 80.5,34.5C 80.5,40.1667 80.5,45.8333 80.5,51.5C 85.5,51.5 90.5,51.5 95.5,51.5C 90.3595,52.4881 85.0262,52.8214 79.5,52.5C 79.5,46.1667 79.5,39.8333 79.5,33.5C 85.0262,33.1786 90.3595,33.5119 95.5,34.5 Z"/></g>
<g><path style="opacity:1" fill="#fefefe" d="M 95.5,34.5 C 95.5,40.1667 95.5,45.8333 95.5,51.5C 90.5,51.5 85.5,51.5 80.5,51.5C 80.5,45.8333 80.5,40.1667 80.5,34.5C 85.5,34.5 90.5,34.5 95.5,34.5 Z"/></g>
<g><path style="opacity:1" fill="#fefefe" d="M 61.5,54.5 C 66.5,54.5 71.5,54.5 76.5,54.5C 76.5,60.1667 76.5,65.8333 76.5,71.5C 71.5,71.5 66.5,71.5 61.5,71.5C 61.5,65.8333 61.5,60.1667 61.5,54.5 Z"/></g>
<g><path style="opacity:1" fill="#0197fd" d="M 97.5,72.5 C 97.5,72.8333 97.5,73.1667 97.5,73.5C 97.2489,80.3973 95.5823,87.0639 92.5,93.5C 87.8333,98.8333 83.1667,104.167 78.5,109.5C 73.2584,114.271 67.5918,118.271 61.5,121.5C 61.5,119.167 61.5,116.833 61.5,114.5C 66.06,112.963 69.8933,110.296 73,106.5C 77.9251,100.817 81.0918,94.3172 82.5,87C 82.4581,85.0326 81.9581,83.1992 81,81.5C 77.8629,79.0144 74.3629,77.1811 70.5,76C 73.3647,75.8171 76.0314,75.3171 78.5,74.5C 78.5,74.1667 78.5,73.8333 78.5,73.5C 78.5,67.5 78.5,61.5 78.5,55.5C 84.412,53.5437 90.7453,52.8771 97.5,53.5C 97.5,59.8333 97.5,66.1667 97.5,72.5 Z"/></g>
<g><path style="opacity:1" fill="#fdfcfb" d="M 99.5,53.5 C 104.5,53.5 109.5,53.5 114.5,53.5C 114.5,59.5 114.5,65.5 114.5,71.5C 109.5,71.5 104.5,71.5 99.5,71.5C 99.5,65.5 99.5,59.5 99.5,53.5 Z"/></g>
<g><path style="opacity:1" fill="#4b403a" d="M 3.5,2.5 C 3.5,2.83333 3.5,3.16667 3.5,3.5C 3.33346,15.5046 3.50013,27.5046 4,39.5C 13.3936,31.7686 23.0603,24.4353 33,17.5C 33.7648,17.5699 34.2648,17.9033 34.5,18.5C 33.5084,18.3284 32.8417,18.6618 32.5,19.5C 22.876,26.618 13.376,33.9514 4,41.5C 3.33333,46.1667 3.33333,50.8333 4,55.5C 6.80162,52.8539 9.96829,50.8539 13.5,49.5C 10.5242,52.3021 7.35751,54.9688 4,57.5C 3.16973,63.5276 3.33639,69.5276 4.5,75.5C 8.53437,73.1116 12.5344,70.7783 16.5,68.5C 13.4693,71.6866 9.96926,74.3532 6,76.5C 5.7557,81.3637 7.2557,85.697 10.5,89.5C 18.5,83.8333 26.5,78.1667 34.5,72.5C 37.8292,74.5061 40.8292,76.8394 43.5,79.5C 40.3933,78.1113 37.3933,76.4446 34.5,74.5C 26.4807,79.5096 18.814,85.0096 11.5,91C 13.7447,93.7309 15.7447,96.5642 17.5,99.5C 9.11847,92.4058 4.11847,83.4058 2.5,72.5C 2.16912,48.994 2.50246,25.6607 3.5,2.5 Z"/></g>
<g><path style="opacity:1" fill="#cdb1a2" d="M 61.5,54.5 C 63.9779,53.8359 66.6445,53.5025 69.5,53.5C 72.5902,53.5217 75.2568,54.1883 77.5,55.5C 77.5,61.1667 77.5,66.8333 77.5,72.5C 71.9738,72.8214 66.6405,72.4881 61.5,71.5C 66.5,71.5 71.5,71.5 76.5,71.5C 76.5,65.8333 76.5,60.1667 76.5,54.5C 71.5,54.5 66.5,54.5 61.5,54.5 Z"/></g>
<g><path style="opacity:1" fill="#f9fafa" d="M 56.5,88.5 C 53.7251,85.3954 50.3918,83.0621 46.5,81.5C 46.0269,80.0937 45.0269,79.427 43.5,79.5C 40.8292,76.8394 37.8292,74.5061 34.5,72.5C 26.5,78.1667 18.5,83.8333 10.5,89.5C 7.2557,85.697 5.7557,81.3637 6,76.5C 9.96926,74.3532 13.4693,71.6866 16.5,68.5C 22.2036,65.6419 27.5369,62.1419 32.5,58C 33.5,57.3333 34.5,57.3333 35.5,58C 43.3333,63.1667 51.1667,68.3333 59,73.5C 59.6667,78.8333 59.6667,84.1667 59,89.5C 58.3292,88.7476 57.4959,88.4142 56.5,88.5 Z"/></g>
<g><path style="opacity:1" fill="#cbb1b4" d="M 99.5,53.5 C 99.5,59.5 99.5,65.5 99.5,71.5C 104.5,71.5 109.5,71.5 114.5,71.5C 109.36,72.4881 104.026,72.8214 98.5,72.5C 98.1765,65.9779 98.5098,59.6446 99.5,53.5 Z"/></g>
<g><path style="opacity:1" fill="#048ef9" d="M 97.5,73.5 C 103.167,73.5 108.833,73.5 114.5,73.5C 113.827,78.8537 112.16,83.8537 109.5,88.5C 105.535,93.5434 101.202,98.3767 96.5,103C 84.8043,111.176 73.1376,119.343 61.5,127.5C 61.5,125.5 61.5,123.5 61.5,121.5C 67.5918,118.271 73.2584,114.271 78.5,109.5C 83.1667,104.167 87.8333,98.8333 92.5,93.5C 95.5823,87.0639 97.2489,80.3973 97.5,73.5 Z"/></g>
<g><path style="opacity:1" fill="#009eff" d="M 78.5,74.5 C 76.0314,75.3171 73.3647,75.8171 70.5,76C 74.3629,77.1811 77.8629,79.0144 81,81.5C 81.9581,83.1992 82.4581,85.0326 82.5,87C 81.0918,94.3172 77.9251,100.817 73,106.5C 69.8933,110.296 66.06,112.963 61.5,114.5C 61.5,101.167 61.5,87.8333 61.5,74.5C 67.1667,74.5 72.8333,74.5 78.5,74.5 Z"/></g>
<g><path style="opacity:1" fill="#644f42" d="M 43.5,79.5 C 45.0269,79.427 46.0269,80.0937 46.5,81.5C 44.9731,81.573 43.9731,80.9063 43.5,79.5 Z"/></g>
<g><path style="opacity:1" fill="#614c36" d="M 61.5,54.5 C 61.5,60.1667 61.5,65.8333 61.5,71.5C 66.6405,72.4881 71.9738,72.8214 77.5,72.5C 77.5,66.8333 77.5,61.1667 77.5,55.5C 77.8333,55.5 78.1667,55.5 78.5,55.5C 78.5,61.5 78.5,67.5 78.5,73.5C 72.5,73.5 66.5,73.5 60.5,73.5C 60.5,91.5 60.5,109.5 60.5,127.5C 60.1667,127.5 59.8333,127.5 59.5,127.5C 59.6665,115.495 59.4999,103.495 59,91.5C 57.955,90.6266 57.1217,89.6266 56.5,88.5C 57.4959,88.4142 58.3292,88.7476 59,89.5C 59.6667,84.1667 59.6667,78.8333 59,73.5C 51.1667,68.3333 43.3333,63.1667 35.5,58C 34.5,57.3333 33.5,57.3333 32.5,58C 27.5369,62.1419 22.2036,65.6419 16.5,68.5C 22.0793,63.6983 28.0793,59.365 34.5,55.5C 42.512,60.1713 50.1787,65.338 57.5,71C 58.4368,71.6917 59.1034,71.525 59.5,70.5C 60.1667,65.1667 60.8333,59.8333 61.5,54.5 Z"/></g>
<g><path style="opacity:1" fill="#6e4a38" d="M 46.5,81.5 C 50.3918,83.0621 53.7251,85.3954 56.5,88.5C 52.6082,86.9379 49.2749,84.6046 46.5,81.5 Z"/></g>
<g><path style="opacity:1" fill="#575347" d="M 17.5,99.5 C 24.9088,105.584 32.5755,111.251 40.5,116.5C 31.3534,112.666 23.6867,107 17.5,99.5 Z"/></g>
<g><path style="opacity:1" fill="#fd4533" d="M 43.5,79.5 C 43.9731,80.9063 44.9731,81.573 46.5,81.5C 49.2749,84.6046 52.6082,86.9379 56.5,88.5C 57.1217,89.6266 57.955,90.6266 59,91.5C 59.4999,103.495 59.6665,115.495 59.5,127.5C 59.1583,128.338 58.4916,128.672 57.5,128.5C 57.4894,126.983 56.8228,125.816 55.5,125C 51.4385,121.971 47.1051,119.471 42.5,117.5C 42.1583,116.662 41.4916,116.328 40.5,116.5C 32.5755,111.251 24.9088,105.584 17.5,99.5C 15.7447,96.5642 13.7447,93.7309 11.5,91C 18.814,85.0096 26.4807,79.5096 34.5,74.5C 37.3933,76.4446 40.3933,78.1113 43.5,79.5 Z"/></g>
<g><path style="opacity:1" fill="#286b9f" d="M 78.5,73.5 C 78.5,73.8333 78.5,74.1667 78.5,74.5C 72.8333,74.5 67.1667,74.5 61.5,74.5C 61.5,87.8333 61.5,101.167 61.5,114.5C 61.5,116.833 61.5,119.167 61.5,121.5C 61.5,123.5 61.5,125.5 61.5,127.5C 61.1667,127.5 60.8333,127.5 60.5,127.5C 60.5,109.5 60.5,91.5 60.5,73.5C 66.5,73.5 72.5,73.5 78.5,73.5 Z"/></g>
<g><path style="opacity:1" fill="#524642" d="M 109.5,88.5 C 105.163,96.6779 99.1633,103.511 91.5,109C 82.9971,114.084 74.6637,119.417 66.5,125C 64.3333,127.167 62.1667,129.333 60,131.5C 58.955,130.627 58.1217,129.627 57.5,128.5C 58.4916,128.672 59.1583,128.338 59.5,127.5C 59.8333,127.5 60.1667,127.5 60.5,127.5C 60.8333,127.5 61.1667,127.5 61.5,127.5C 73.1376,119.343 84.8043,111.176 96.5,103C 101.202,98.3767 105.535,93.5434 109.5,88.5 Z"/></g>
<g><path style="opacity:1" fill="#5e503f" d="M 42.5,117.5 C 47.1051,119.471 51.4385,121.971 55.5,125C 56.8228,125.816 57.4894,126.983 57.5,128.5C 52.2844,125.066 47.2844,121.399 42.5,117.5 Z"/></g>
</svg>

<svg xmlns="http://www.w3.org/2000/svg" width="120" height="135" style="shape-rendering:geometricPrecision;text-rendering:geometricPrecision;image-rendering:optimizeQuality;fill-rule:evenodd;clip-rule:evenodd"><path style="opacity:1" fill="#fcfcfc" d="M-.5-.5h120v135H-.5V-.5z"/><path style="opacity:1" fill="#5a5a61" d="M109.5 88.5c2.66-4.646 4.327-9.646 5-15h-17v-1h1c5.526.321 10.86-.012 16-1v-19a300.7 300.7 0 0 0 0-49h-51c-1.985 15.632-2.651 31.632-2 48v1c-.904-.709-1.237-1.709-1-3v-47h-57c-.998 23.16-1.33 46.494-1 70-.998-23.494-1.33-47.16-1-71h115c.167 24.669 0 49.336-.5 74-.951 5.067-3.117 9.4-6.5 13z"/><path style="opacity:1" fill="#0090fe" d="M63.5 3.5h51v48h-17v-8c.617.11 1.117.444 1.5 1a70.76 70.76 0 0 1 3.5-18c-.865-7.37-4.865-12.204-12-14.5l-24-6c-1.62-.236-2.62-1.069-3-2.5z"/><path style="opacity:1" fill="#fc4030" d="M3.5 3.5h56v31l-25-16c-.235-.597-.735-.93-1.5-1a458.198 458.198 0 0 0-29 22 648.438 648.438 0 0 1-.5-36z"/><path style="opacity:1" fill="#029afd" d="M63.5 3.5c.38 1.431 1.38 2.264 3 2.5l24 6c7.135 2.296 11.135 7.13 12 14.5a70.76 70.76 0 0 0-3.5 18c-.383-.556-.883-.89-1.5-1v-11h-19c-.99 6.145-1.323 12.478-1 19h-16c-.651-16.368.015-32.368 2-48z"/><path style="opacity:1" fill="#90371a" d="M3.5 3.5v-1h57v32h-1v-31h-56z"/><path style="opacity:1" fill="#f9fafa" d="M32.5 19.5a223.334 223.334 0 0 1 26.5 17c.499 4.32.666 8.654.5 13 0 1.333-.667 2-2 2-1.302-2.322-3.302-3.655-6-4-.473-1.406-1.473-2.073-3-2a126.385 126.385 0 0 0-15-11c-2.285.633-3.952 1.966-5 4a63.78 63.78 0 0 0-15 11c-3.532 1.354-6.698 3.354-9.5 6a49.25 49.25 0 0 1 0-14 877.596 877.596 0 0 1 28.5-22z"/><path style="opacity:1" fill="#66614a" d="M32.5 19.5c.342-.838 1.008-1.172 2-1l25 16h1v15h-1a84.938 84.938 0 0 0-.5-13 223.334 223.334 0 0 0-26.5-17z"/><path style="opacity:1" fill="#61463f" d="M48.5 45.5a153.538 153.538 0 0 1-14-8.5c-2.189-.322-4.189.178-6 1.5 1.048-2.034 2.715-3.367 5-4a126.385 126.385 0 0 1 15 11z"/><path style="opacity:1" fill="#fb3f30" d="M48.5 45.5c.473 1.406 1.473 2.073 3 2 1.648 1.826 3.648 3.16 6 4 .283.79.783 1.456 1.5 2 .5 5.657.666 11.324.5 17-.397 1.025-1.063 1.192-2 .5a212.57 212.57 0 0 0-23-15.5 131.49 131.49 0 0 0-18 13 1064.196 1064.196 0 0 0-12 7 54.56 54.56 0 0 1-.5-18 113.56 113.56 0 0 0 9.5-8 63.78 63.78 0 0 0 15-11c1.811-1.322 3.811-1.822 6-1.5a153.538 153.538 0 0 0 14 8.5z"/><path style="opacity:1" fill="#534a4b" d="M28.5 38.5a63.78 63.78 0 0 1-15 11 63.78 63.78 0 0 1 15-11z"/><path style="opacity:1" fill="#1f68a7" d="M114.5 3.5a300.7 300.7 0 0 1 0 49c-5.858.322-11.525-.011-17-1h17v-48z"/><path style="opacity:1" fill="#623827" d="M48.5 45.5c1.527-.073 2.527.594 3 2-1.527.073-2.527-.594-3-2z"/><path style="opacity:1" fill="#6b453c" d="M51.5 47.5c2.698.345 4.698 1.678 6 4-2.352-.84-4.352-2.174-6-4z"/><path style="opacity:1" fill="#2372c0" d="M78.5 32.5v20h-17v-1h16c-.323-6.522.01-12.855 1-19z"/><path style="opacity:1" fill="#5e412a" d="M78.5 32.5h19v19c5.475.989 11.142 1.322 17 1v1h-15c-.99 6.145-1.323 12.478-1 19h-1v-19c-6.755-.623-13.088.044-19 2h-1c-2.243-1.312-4.91-1.978-8-2-2.856.002-5.522.336-8 1l-2 16c.166-5.676 0-11.343-.5-17-.717-.544-1.217-1.21-1.5-2 1.333 0 2-.667 2-2h1c-.237 1.291.096 2.291 1 3h17v-20z"/><path style="opacity:1" fill="#ddc0ac" d="M95.5 34.5h-15v17h15c-5.14.988-10.474 1.321-16 1v-19c5.526-.321 10.86.012 16 1z"/><path style="opacity:1" fill="#fefefe" d="M95.5 34.5v17h-15v-17h15zM61.5 54.5h15v17h-15v-17z"/><path style="opacity:1" fill="#0197fd" d="M97.5 72.5v1c-.251 6.897-1.918 13.564-5 20l-14 16c-5.242 4.771-10.908 8.771-17 12v-7c4.56-1.537 8.393-4.204 11.5-8 4.925-5.683 8.092-12.183 9.5-19.5a11.529 11.529 0 0 0-1.5-5.5A31.662 31.662 0 0 0 70.5 76c2.865-.183 5.531-.683 8-1.5v-19c5.912-1.956 12.245-2.623 19-2v19z"/><path style="opacity:1" fill="#fdfcfb" d="M99.5 53.5h15v18h-15v-18z"/><path style="opacity:1" fill="#4b403a" d="M3.5 2.5v1c-.167 12.005 0 24.005.5 36a458.198 458.198 0 0 1 29-22c.765.07 1.265.403 1.5 1-.992-.172-1.658.162-2 1A877.596 877.596 0 0 0 4 41.5a49.25 49.25 0 0 0 0 14c2.802-2.646 5.968-4.646 9.5-6a113.56 113.56 0 0 1-9.5 8 54.56 54.56 0 0 0 .5 18c4.034-2.388 8.034-4.722 12-7-3.03 3.187-6.53 5.853-10.5 8-.244 4.864 1.256 9.197 4.5 13l24-17a47.228 47.228 0 0 1 9 7 60.038 60.038 0 0 1-9-5 221.31 221.31 0 0 0-23 16.5 69.753 69.753 0 0 1 6 8.5c-8.382-7.094-13.382-16.094-15-27-.33-23.506.002-46.84 1-70z"/><path style="opacity:1" fill="#cdb1a2" d="M61.5 54.5c2.478-.664 5.144-.998 8-1 3.09.022 5.757.688 8 2v17c-5.526.321-10.86-.012-16-1h15v-17h-15z"/><path style="opacity:1" fill="#f9fafa" d="M56.5 88.5c-2.775-3.105-6.108-5.438-10-7-.473-1.406-1.473-2.073-3-2a47.228 47.228 0 0 0-9-7l-24 17c-3.244-3.803-4.744-8.136-4.5-13 3.97-2.147 7.47-4.813 10.5-8a82.788 82.788 0 0 0 16-10.5c1-.667 2-.667 3 0L59 73.5a64.247 64.247 0 0 1 0 16c-.67-.752-1.504-1.086-2.5-1z"/><path style="opacity:1" fill="#cbb1b4" d="M99.5 53.5v18h15c-5.14.988-10.474 1.321-16 1-.323-6.522.01-12.855 1-19z"/><path style="opacity:1" fill="#048ef9" d="M97.5 73.5h17c-.673 5.354-2.34 10.354-5 15a152.607 152.607 0 0 1-13 14.5 34271.642 34271.642 0 0 0-35 24.5v-6c6.092-3.229 11.758-7.229 17-12l14-16c3.082-6.436 4.749-13.103 5-20z"/><path style="opacity:1" fill="#009eff" d="M78.5 74.5c-2.469.817-5.135 1.317-8 1.5A31.662 31.662 0 0 1 81 81.5a11.529 11.529 0 0 1 1.5 5.5c-1.408 7.317-4.575 13.817-9.5 19.5-3.107 3.796-6.94 6.463-11.5 8v-40h17z"/><path style="opacity:1" fill="#644f42" d="M43.5 79.5c1.527-.073 2.527.594 3 2-1.527.073-2.527-.594-3-2z"/><path style="opacity:1" fill="#614c36" d="M61.5 54.5v17c5.14.988 10.474 1.321 16 1v-17h1v18h-18v54h-1c.166-12.005 0-24.005-.5-36a10.521 10.521 0 0 1-2.5-3c.996-.086 1.83.248 2.5 1a64.247 64.247 0 0 0 0-16L35.5 58c-1-.667-2-.667-3 0a82.788 82.788 0 0 1-16 10.5 131.49 131.49 0 0 1 18-13 212.57 212.57 0 0 1 23 15.5c.937.692 1.603.525 2-.5l2-16z"/><path style="opacity:1" fill="#6e4a38" d="M46.5 81.5c3.892 1.562 7.225 3.895 10 7-3.892-1.562-7.225-3.895-10-7z"/><path style="opacity:1" fill="#575347" d="M17.5 99.5a278.978 278.978 0 0 0 23 17c-9.147-3.834-16.813-9.5-23-17z"/><path style="opacity:1" fill="#fd4533" d="M43.5 79.5c.473 1.406 1.473 2.073 3 2 2.775 3.105 6.108 5.438 10 7a10.521 10.521 0 0 0 2.5 3c.5 11.995.666 23.995.5 36-.342.838-1.008 1.172-2 1-.01-1.517-.677-2.684-2-3.5a63.42 63.42 0 0 0-13-7.5c-.342-.838-1.008-1.172-2-1a278.978 278.978 0 0 1-23-17 69.753 69.753 0 0 0-6-8.5 221.31 221.31 0 0 1 23-16.5 60.038 60.038 0 0 0 9 5z"/><path style="opacity:1" fill="#286b9f" d="M78.5 73.5v1h-17v53h-1v-54h18z"/><path style="opacity:1" fill="#524642" d="M109.5 88.5c-4.337 8.178-10.337 15.011-18 20.5a487.009 487.009 0 0 0-25 16l-6.5 6.5a10.51 10.51 0 0 1-2.5-3c.992.172 1.658-.162 2-1h2a34271.642 34271.642 0 0 1 35-24.5 152.607 152.607 0 0 0 13-14.5z"/><path style="opacity:1" fill="#5e503f" d="M42.5 117.5a63.42 63.42 0 0 1 13 7.5c1.323.816 1.99 1.983 2 3.5a183.193 183.193 0 0 1-15-11z"/></svg>
